public/Img/Home/features__encrypt.svg

<svg width="58" height="62" viewBox="0 0 58 62" fill="none" xmlns="http://www.w3.org/2000/svg">
<g filter="url(#filter0_d_281_700)">
<path fill-rule="evenodd" clip-rule="evenodd" d="M33.7999 21.2771V5.38435C33.3491 5.23222 32.8871 5.09315 32.4242 4.96435C30.5799 4.47155 28.6386 4.19995 26.6319 4.19995C25.7742 4.19995 24.9314 4.25315 24.0998 4.34928C22.066 4.57888 20.1163 5.08662 18.2823 5.82115C18.2823 5.82115 33.3939 20.7227 33.7999 21.2771ZM45.9708 15.2954C46.2106 15.7107 46.4365 16.1335 46.6484 16.5563L35.3662 27.7946C35.4792 27.1198 35.3662 5.93873 35.3662 5.93873C37.1834 6.70593 38.9185 7.727 40.5229 8.9954C41.1781 9.51247 41.8137 10.0715 42.4194 10.6745C43.8372 12.0838 45.0132 13.6453 45.9708 15.2954ZM27.9017 17.8341L16.6224 6.59401C16.1912 6.80867 15.7674 7.03361 15.3549 7.27254C13.6936 8.22361 12.1284 9.39867 10.7144 10.8071C10.103 11.4128 9.54771 12.0484 9.02971 12.698C7.75571 14.2959 6.73184 16.0272 5.95997 17.8379C5.95997 17.8379 27.2213 17.7259 27.9017 17.8341ZM21.3381 19.432H5.38553C5.23153 19.8781 5.09526 20.3382 4.96833 20.8012C4.47086 22.6408 4.2002 24.5737 4.2002 26.572C4.2002 27.426 4.2534 28.2669 4.35046 29.0938C4.58006 31.1229 5.0878 33.0652 5.8298 34.887C5.8298 34.887 20.7799 19.8296 21.3381 19.432ZM6.53712 36.5316L17.8127 25.2915C17.7044 25.9655 17.8174 46.8111 17.8192 47.1488L17.8192 47.1494L17.8192 47.1499L17.8192 47.1502L17.8193 47.153C15.9983 46.3867 14.267 45.3703 12.6626 44.0991C12.0074 43.5783 11.3709 43.0239 10.7661 42.42C9.34739 41.0098 8.16765 39.4483 7.21472 37.7954C6.97672 37.3791 6.74619 36.9619 6.53712 36.5316ZM38.5796 35.485C35.82 37.3317 33.9268 40.3722 33.6388 43.8678L25.1895 35.4499C25.576 35.5145 32.5863 35.5052 38.5796 35.485ZM42.7993 33.7781H31.8594C32.4185 33.3759 47.3714 18.3193 47.3714 18.3193C48.1125 20.144 48.6165 22.0881 48.8489 24.1144C48.945 24.9423 49.0001 25.7841 49.0001 26.6391C49.0001 28.6383 48.7275 30.5656 48.2273 32.4071C48.1022 32.8681 47.9631 33.3283 47.8119 33.7781H46.8019C46.1525 33.661 45.4837 33.5999 44.8006 33.5999C44.1175 33.5999 43.4486 33.661 42.7993 33.7781ZM33.6832 46.1673C33.7481 46.7001 33.8503 47.2213 33.9873 47.7282C32.4292 48.2772 30.7937 48.6575 29.0959 48.8497C28.268 48.9467 27.4234 48.9999 26.5684 48.9999C24.5618 48.9999 22.6232 48.7311 20.7762 48.2299C20.3142 48.1058 19.854 47.9677 19.4014 47.8146V31.9199C19.7332 32.3819 30.0751 42.6036 33.6832 46.1673Z" fill="#6B7CFF"/>
<circle cx="44.8004" cy="44.7999" r="8.4" fill="#6B7CFF"/>
<path fill-rule="evenodd" clip-rule="evenodd" d="M49.1521 42.1627L48.1621 41.1727L43.2123 46.1225L40.7373 43.6475L39.7473 44.6375L43.2122 48.1023L43.2122 48.1022L43.2123 48.1023L49.1521 42.1627Z" fill="#FAFBFF"/>
</g>
<defs>
<filter id="filter0_d_281_700" x="0.200195" y="4.19995" width="57.0002" height="57" filterUnits="userSpaceOnUse" color-interpolation-filters="sRGB">
<feFlood flood-opacity="0" result="BackgroundImageFix"/>
<feColorMatrix in="SourceAlpha" type="matrix" values="0 0 0 0 0 0 0 0 0 0 0 0 0 0 0 0 0 0 127 0" result="hardAlpha"/>
<feOffset dy="4"/>
<feGaussianBlur stdDeviation="2"/>
<feComposite in2="hardAlpha" operator="out"/>
<feColorMatrix type="matrix" values="0 0 0 0 0 0 0 0 0 0 0 0 0 0 0 0 0 0 0.25 0"/>
<feBlend mode="normal" in2="BackgroundImageFix" result="effect1_dropShadow_281_700"/>
<feBlend mode="normal" in="SourceGraphic" in2="effect1_dropShadow_281_700" result="shape"/>
</filter>
</defs>
</svg>

<svg width="58" height="62" fill="none" xmlns="http://www.w3.org/2000/svg"><g filter="url(#a)"><path fill-rule="evenodd" clip-rule="evenodd" d="M33.8 21.277V5.384c-.45-.152-.913-.29-1.376-.42a22.41 22.41 0 0 0-5.792-.764c-.858 0-1.7.053-2.532.15-2.034.229-3.984.737-5.818 1.471 0 0 15.112 14.902 15.518 15.456Zm12.17-5.982c.24.416.467.839.678 1.261L35.366 27.795c.113-.675 0-21.856 0-21.856a22.296 22.296 0 0 1 5.157 3.056c.655.517 1.29 1.077 1.896 1.68a22.222 22.222 0 0 1 3.552 4.62Zm-18.068 2.54L16.622 6.593c-.43.215-.855.44-1.267.679a22.175 22.175 0 0 0-4.64 3.534 21.625 21.625 0 0 0-1.685 1.891 22.215 22.215 0 0 0-3.07 5.14s21.261-.112 21.942-.004Zm-6.564 1.597H5.386a22.07 22.07 0 0 0-1.185 7.14c0 .854.052 1.695.15 2.522.23 2.029.737 3.971 1.479 5.793 0 0 14.95-15.057 15.508-15.455Zm-14.8 17.1 11.275-11.24c-.109.673.004 21.52.006 21.857v.004a22.076 22.076 0 0 1-5.156-3.054 22.382 22.382 0 0 1-1.897-1.679 22.005 22.005 0 0 1-3.551-4.625 21.352 21.352 0 0 1-.678-1.263Zm32.042-1.047a11.194 11.194 0 0 0-4.941 8.383l-8.45-8.418c.387.064 7.397.055 13.39.035Zm4.22-1.707H31.86c.559-.402 15.511-15.459 15.511-15.459a22.067 22.067 0 0 1 1.478 5.795c.096.828.151 1.67.151 2.525 0 2-.273 3.927-.773 5.768a24.24 24.24 0 0 1-.415 1.371h-1.01a11.27 11.27 0 0 0-4.003 0Zm-9.117 12.39c.065.532.167 1.053.304 1.56-1.558.55-3.193.93-4.891 1.122-.828.097-1.673.15-2.528.15a22.07 22.07 0 0 1-5.792-.77 22.563 22.563 0 0 1-1.375-.415V31.92c.332.462 10.674 10.684 14.282 14.247Z" fill="#6B7CFF"/><circle cx="44.8" cy="44.8" r="8.4" fill="#6B7CFF"/><path fill-rule="evenodd" clip-rule="evenodd" d="m49.152 42.163-.99-.99-4.95 4.95-2.475-2.475-.99.99 3.465 3.464 5.94-5.94Z" fill="#FAFBFF"/></g><defs><filter id="a" x=".2" y="4.2" width="57" height="57" filterUnits="userSpaceOnUse" color-interpolation-filters="sRGB"><feFlood flood-opacity="0" result="BackgroundImageFix"/><feColorMatrix in="SourceAlpha" values="0 0 0 0 0 0 0 0 0 0 0 0 0 0 0 0 0 0 127 0" result="hardAlpha"/><feOffset dy="4"/><feGaussianBlur stdDeviation="2"/><feComposite in2="hardAlpha" operator="out"/><feColorMatrix values="0 0 0 0 0 0 0 0 0 0 0 0 0 0 0 0 0 0 0.25 0"/><feBlend in2="BackgroundImageFix" result="effect1_dropShadow_281_700"/><feBlend in="SourceGraphic" in2="effect1_dropShadow_281_700" result="shape"/></filter></defs></svg>
